img/decisions-check.svg

<svg width="20" height="20" viewBox="0 0 20 20" fill="none" xmlns="http://www.w3.org/2000/svg">
<g clip-path="url(#clip0_1442_218)">
<path d="M10.0007 19.1673C15.0549 19.1673 19.1673 15.0553 19.1673 10.0007C19.1673 9.12822 19.0455 8.26847 18.8044 7.44509C18.6856 7.04021 18.2628 6.80765 17.8568 6.92645C17.4516 7.04487 17.2197 7.46915 17.3382 7.87403C17.5379 8.5581 17.6395 9.27387 17.6395 10.0007C17.6395 14.2127 14.2127 17.6395 10.0007 17.6395C5.78863 17.6395 2.36176 14.2127 2.36176 10.0007C2.36176 5.78863 5.78863 2.36176 10.0007 2.36176C11.5314 2.36176 13.0042 2.80935 14.2597 3.65586C14.6092 3.89178 15.0844 3.79909 15.3199 3.44959C15.5556 3.09973 15.4637 2.62491 15.1138 2.38918C13.6051 1.37184 11.8371 0.833984 10.0007 0.833984C4.94641 0.833984 0.833984 4.94604 0.833984 10.0007C0.833984 15.0553 4.94641 19.1673 10.0007 19.1673Z" fill="#FF5A30"/>
<path d="M18.578 1.91131L10.0005 10.4884L7.25636 7.74464C6.93084 7.41932 6.40349 7.41932 6.07797 7.74464C5.75266 8.07016 5.75266 8.5975 6.07797 8.92302L9.41131 12.2564C9.57427 12.4193 9.78708 12.5005 10.0005 12.5005C10.2139 12.5005 10.4267 12.4193 10.5897 12.2564L19.7564 3.08969C20.0817 2.76417 20.0817 2.23683 19.7564 1.91131C19.4308 1.58599 18.9035 1.58599 18.578 1.91131Z" fill="#FF5A30"/>
</g>
<defs>
<clipPath id="clip0_1442_218">
<rect width="20" height="20" fill="white"/>
</clipPath>
</defs>
</svg>

<svg width="20" height="20" fill="none" xmlns="http://www.w3.org/2000/svg"><g clip-path="url(#clip0_1442_218)" fill="#FF5A30"><path d="M10 19.167c5.055 0 9.167-4.112 9.167-9.166 0-.873-.122-1.733-.363-2.556a.763.763 0 10-1.466.429c.2.684.302 1.4.302 2.127 0 4.212-3.427 7.639-7.64 7.639-4.211 0-7.638-3.427-7.638-7.64 0-4.211 3.427-7.638 7.639-7.638 1.53 0 3.003.447 4.259 1.294a.764.764 0 00.854-1.267A9.11 9.11 0 0010 .834C4.946.834.834 4.946.834 10.001c0 5.054 4.112 9.166 9.167 9.166z"/><path d="M18.578 1.911l-8.577 8.577-2.745-2.743a.833.833 0 00-1.178 1.178l3.333 3.333a.83.83 0 001.179 0l9.166-9.166a.833.833 0 00-1.178-1.179z"/></g><defs><clipPath id="clip0_1442_218"><path fill="#fff" d="M0 0h20v20H0z"/></clipPath></defs></svg>
